X:66
T: Zu Arel op der Knippchen, S. 33f
N: L0026
O: Luxemburg
S: Die Luxemburger Volkslieder lterer Zeit, Luxemburg 1904 posth.]
N: 1. Weise
N: 2. Weise folgt; Sign. 0027
R: Trinklied]
M: 2/4
L: 1/16
K: G
D4 | G2F2G2A2 | B4G2B2 | A2G2F2A2 | G4z2
D2 | G2F2G2A2 | B4G2B2 | A2G2F2A2 | G4z2
Bc | d4d4 | edcBc2AB | c4c4 | dcBAB2
B2 | A2G2F2A2 | G4z2B2 | A2G2F2A2 | G3zz4

@@@ Tune index: 8120
